!!!OTL: Die Rudolfsburg.
!!!OTL-incipit:  IN SACHSENLAND LAG EINST EIN SCHLOSS
!!!ARE: Europa, Mitteleuropa, Deutschland
!!!SCT: F0869
!!!TXL: @@DE
!!!YEM: Copyright 1995, estate of Helmut Schaffrath.
**kern	**text
*ICvox	*
*clefG2	*
*M6/8	*
*k[f#]	*
*G:	*
!LO:TX:a:t=Munter erʒählend.	!
{8d	1._Jn
=1	=1
4g	Sachſenland
8g	.
4b/	.
8b/	lag
=2	=2
4dd	einſt
8dd	ein
4b}	Schloß
{8b	mit
=3	=3
8.aL	Thor
16bJ	.
8cc/	und
8.dL	Thür
16eJ	.
8f#	und
=4	=4
4.a	Gra-
8g	-ben,
8r}	.
{8d	wo
=5	=5
4g	Ritter
8g	.
4b/	konnt
8b/	mit
=6	=6
4dd	Mann
8dd	und
4b}	Roß
{8b	Quartier
=7	=7
8.aL	.
16bJ	.
8cc/	und
8.dL	Ʒeh-
16eJ	.
8f#	-rung
=8	=8
4.a	ha-
8g	-ben.
8r}	.
{8d	Denn
=9	=9
4a	damals
8a	.
4a	hauſt
8a	ein
=10	=10
8cc/L	1._Fräulein
8bJ	.
8a	.
4g}	da,
{16gL	die
16aJ	.
=11	=11
4a	al-
8a	-le
4a	Rit-
8a	-ter
=12	=12
8cc/L	ger-
8bJ	.
8a	-ne
4g}	ſah,
{16gL	wenn
16aJ	.
=13	=13
4b/	ſie
8b/	von
4b/	ih-
8g	-ren
=14	=14
4.e	Lei-
4cc}	-den
{8a	ihr
=15	=15
4g	mal
8g	was
16gq	.
8.f#L	vor-
16eJ	.
8f#	-la-
=16	=16
4.a	-1._lei-
8g	-ten,
8r}	.
{16gL	wenn
16aJ	.
=17	=17
4b/	ſie
8b/	von
4b/	ih-
8g	-ren
=18	=18
4.e	Lei-
4cc}	-den
{8a	ihr
=19	=19
4g	mal
8g	was
16gq	.
8.f#L	vor-
16eJ	.
8f#	-la-
=20	=20
4.a	-lei-
8g	-ten.
8r}	.
==	==
!!!AGN: erzaehlendes Volks - Lied, Ballade
!!!ONB: ESAC (Essen Associative Code) Database: FINK
!!!AMT: compound duple
!!!AIN: vox
!!!EED: Helmut Schaffrath
!!!EEV: 1.0
!!!RDF**kern: > = above
!!!GTL: Romanzen und Balladen
!!!source: Musikalischer Hausschatz der Deutschen. Eine Sammlung von über 1000 Liedern und Gesängen mit Singstimmen und Klavierbegleitung. Leipzig, Litterarisches Verlags-Haus.
!!!page: 623
!!!URL-scan: https://www.digitale-sammlungen.de/en/view/bsb11144622?page=559
!!!ENC: Anna Maria Matuszewska
!!!EEV: 2024/08/07
*-	*-